images/link.svg

<?xml version="1.0" encoding="UTF-8" standalone="no"?>
<svg width="15px" height="15px" viewBox="0 0 15 15" version="1.1" xmlns="http://www.w3.org/2000/svg" xmlns:xlink="http://www.w3.org/1999/xlink">
    <!-- Generator: Sketch 40.3 (33839) - http://www.bohemiancoding.com/sketch -->
    <title>link</title>
    <desc>Created with Sketch.</desc>
    <defs></defs>
    <g id="Page-1" stroke="none" stroke-width="1" fill="none" fill-rule="evenodd">
        <g id="link" fill="#000000">
            <g id="Capa_1">
                <path d="M13.967,0.95 C13.3555,0.3385 12.53975,0.00175 11.66975,0.00175 C10.8,0.00175 9.984,0.3385 9.3725,0.95 L7.105,3.2175 C6.28625,4.03625 6,5.1865 6.23975,6.24 C6.0045,6.187 5.76225,6.15675 5.51475,6.15675 C4.645,6.15675 3.829,6.4935 3.21775,7.105 L0.95,9.37275 C-0.3165,10.63925 -0.3165,12.70075 0.95,13.96725 C1.5615,14.57875 2.37725,14.9155 3.24725,14.9155 C4.11725,14.9155 4.933,14.57875 5.5445,13.96725 L7.812,11.69975 C8.63075,10.881 8.917,9.73075 8.67725,8.67725 C8.9125,8.73025 9.15475,8.7605 9.40225,8.7605 C10.27225,8.7605 11.08825,8.42375 11.6995,7.81225 L13.96725,5.54475 C15.234,4.278 15.234,2.21675 13.967,0.95 L13.967,0.95 Z M7.105,10.9925 L4.8375,13.26 C4.415,13.6825 3.85,13.91525 3.24725,13.91525 C2.6445,13.91525 2.07975,13.6825 1.657,13.26 C0.78025,12.383 0.78025,10.9565 1.657,10.0795 L3.92475,7.812 C4.34725,7.3895 4.912,7.15675 5.51475,7.15675 C5.94575,7.15675 6.35625,7.2775 6.71025,7.49975 L4.77225,9.43775 C4.577,9.633 4.577,9.9495 4.77225,10.14475 C4.86975,10.2425 4.99775,10.29125 5.12575,10.29125 C5.25375,10.29125 5.38175,10.2425 5.47925,10.14475 L7.4175,8.2065 C7.963,9.075 7.86,10.23725 7.105,10.9925 L7.105,10.9925 Z M13.26,4.8375 L10.99225,7.105 C10.56975,7.5275 10.005,7.76025 9.402,7.76025 C8.971,7.76025 8.56075,7.6395 8.20675,7.41725 L10.14475,5.47925 C10.34,5.284 10.34,4.9675 10.14475,4.77225 C9.94975,4.577 9.63275,4.577 9.43775,4.77225 L7.4995,6.7105 C6.954,5.842 7.057,4.68 7.812,3.92475 L10.0795,1.65725 C10.502,1.23475 11.067,1.002 11.66975,1.002 C12.27275,1.002 12.83725,1.23475 13.26,1.65725 C13.68275,2.07975 13.91525,2.6445 13.91525,3.2475 C13.91525,3.85025 13.6825,4.415 13.26,4.8375 L13.26,4.8375 Z" id="Shape"></path>
            </g>
        </g>
    </g>
</svg>

<svg width="15" height="15" xmlns="http://www.w3.org/2000/svg"><path d="M13.967.95A3.226 3.226 0 0 0 11.67.002c-.87 0-1.686.337-2.297.948L7.105 3.218A3.247 3.247 0 0 0 6.24 6.24a3.225 3.225 0 0 0-3.022.865L.95 9.373a3.253 3.253 0 0 0 0 4.594 3.226 3.226 0 0 0 2.297.948c.87 0 1.686-.336 2.298-.948L7.812 11.7a3.247 3.247 0 0 0 .865-3.023 3.225 3.225 0 0 0 3.022-.865l2.268-2.267a3.252 3.252 0 0 0 0-4.595zM7.105 10.993L4.837 13.26a2.233 2.233 0 0 1-1.59.655 2.233 2.233 0 0 1-1.59-.655 2.252 2.252 0 0 1 0-3.18l2.268-2.268a2.232 2.232 0 0 1 1.59-.655c.43 0 .841.12 1.195.343L4.772 9.438a.5.5 0 1 0 .707.707l1.939-1.938c.545.868.442 2.03-.313 2.785zm6.155-6.155l-2.268 2.267a2.233 2.233 0 0 1-1.59.655c-.431 0-.841-.12-1.195-.343l1.938-1.938a.5.5 0 1 0-.707-.707L7.499 6.71a2.252 2.252 0 0 1 .313-2.785l2.267-2.268a2.233 2.233 0 0 1 1.59-.655 2.233 2.233 0 0 1 2.246 2.245c0 .603-.232 1.168-.655 1.59z" fill="#000" fill-rule="evenodd"/></svg>
